public/svg/logo/logo2.svg

<svg width="521" height="321" viewBox="0 0 521 321" fill="none" xmlns="http://www.w3.org/2000/svg">
<path fill-rule="evenodd" clip-rule="evenodd" d="M267.73 73.2295H251.315V96.1144H228.117L228.117 112.308H251.315V135.191H267.73V112.308H290.928V96.1144H267.73V73.2295Z" fill="url(#paint0_linear)"/>
<path fill-rule="evenodd" clip-rule="evenodd" d="M356.262 104.208C356.262 156.847 313.589 199.519 260.95 199.519C208.311 199.519 165.639 156.847 165.639 104.208C165.639 51.5693 208.311 8.89696 260.95 8.89696C313.589 8.89696 356.262 51.5693 356.262 104.208ZM365.159 104.208C365.159 161.761 318.503 208.416 260.95 208.416C203.398 208.416 156.742 161.761 156.742 104.208C156.742 46.6556 203.398 0 260.95 0C318.503 0 365.159 46.6556 365.159 104.208ZM200.516 171.153C198.692 169.503 198.697 166.672 200.436 164.933C202.171 163.198 204.977 163.207 206.806 164.843C238.711 193.389 287.746 192.339 318.392 161.693C350.125 129.96 350.125 78.5107 318.392 46.7776C287.714 16.1001 238.61 15.0797 206.707 43.7164C204.879 45.3575 202.069 45.3687 200.331 43.6315C198.594 41.8942 198.588 39.0676 200.408 37.4167C235.794 5.31063 290.53 6.33389 324.683 40.4865C359.89 75.694 359.89 132.777 324.683 167.984C290.565 202.102 235.906 203.158 200.516 171.153ZM191.412 122.823C189.039 123.459 187.619 125.906 188.39 128.239C200.995 166.383 241.35 188.506 280.648 177.976C321.389 167.06 345.566 125.183 334.65 84.4428C323.733 43.7022 281.857 19.5249 241.116 30.4413C239.341 30.9171 237.819 33.3223 238.74 36.0872C239.662 38.8522 241.83 39.461 243.419 39.0351C279.414 29.3904 316.411 50.7511 326.056 86.7455C335.701 122.74 314.34 159.738 278.346 169.382C243.795 178.64 208.32 159.33 197 125.932C196.211 123.606 193.785 122.187 191.412 122.823ZM255.911 42.507C258.379 42.3046 260.406 44.3215 260.406 46.7978C260.406 49.2364 258.437 51.2016 256.009 51.43C229.098 53.9625 208.039 76.6182 208.039 104.192C208.039 133.462 231.767 157.19 261.037 157.19C288.796 157.19 311.57 135.849 313.847 108.679C314.052 106.232 316.024 104.235 318.48 104.235C320.938 104.235 322.947 106.236 322.771 108.688C320.468 140.773 293.709 166.087 261.037 166.087C226.853 166.087 199.142 138.376 199.142 104.192C199.142 71.7351 224.125 45.1129 255.911 42.507Z" fill="url(#paint1_linear)"/>
<path d="M26.6671 257.811H0.898438V311.651H8.6675V265.195H26.6671V257.811Z" fill="#DA3E0C"/>
<path d="M44.9648 304.344V287.884H62.1183V280.731H44.9648V265.118H63.5798V257.811H37.1957V311.651H64.349V304.344H44.9648Z" fill="#DA3E0C"/>
<path d="M90.7282 257.811H76.4977V311.651H84.2668V292.73H90.7282C101.266 292.73 107.266 286.5 107.266 275.193C107.266 264.195 101.266 257.811 90.7282 257.811ZM90.6513 285.346H84.2668V265.195H90.6513C96.4973 265.195 99.3434 268.579 99.3434 275.193C99.3434 282.116 96.4973 285.346 90.6513 285.346Z" fill="#DA3E0C"/>
<path d="M133.802 312.651C144.11 312.651 150.264 305.806 150.264 294.576V274.886C150.264 263.656 144.11 256.811 133.802 256.811C123.495 256.811 117.341 263.656 117.341 274.886V294.576C117.341 305.806 123.495 312.651 133.802 312.651ZM133.802 305.036C128.187 305.036 125.341 301.344 125.341 294.576V274.886C125.341 268.117 128.187 264.425 133.802 264.425C139.341 264.425 142.264 268.117 142.264 274.886V294.576C142.264 301.344 139.341 305.036 133.802 305.036Z" fill="#DA3E0C"/>
<path d="M197.595 257.811L188.518 279.654C187.287 282.731 185.441 287.884 184.595 290.346H184.287C183.441 287.884 181.595 282.731 180.364 279.654L171.288 257.811H163.365V311.651H170.98V290.653C170.826 284.5 170.595 278.885 170.365 273.271L170.672 273.117C172.211 277.424 174.057 282.347 175.903 287.269L180.595 299.498H188.287L192.98 287.269C194.826 282.347 196.672 277.424 198.21 273.117L198.518 273.271C198.21 278.885 198.056 284.5 197.903 290.653V311.651H205.518V257.811H197.595Z" fill="#DA3E0C"/>
<path d="M227.939 304.344V287.884H245.092V280.731H227.939V265.118H246.554V257.811H220.17V311.651H247.323V304.344H227.939Z" fill="#DA3E0C"/>
<path d="M290.625 304.344V257.811H264.702L263.779 283.808C263.471 292.269 261.625 300.345 257.702 304.344H254.549V320.65H262.164V311.651H287.779V320.65H295.394V304.344H290.625ZM282.933 304.344H267.01C269.548 299.806 270.933 293.576 271.241 285.961L272.01 265.118H282.933V304.344Z" fill="#DA3E0C"/>
<path d="M306.06 311.651H313.906L326.906 282.193C328.213 279.193 329.752 275.04 330.752 272.271L330.983 272.424C330.598 276.886 330.29 284.116 330.29 288.192V311.651H337.906V257.811H329.983L316.906 287.5C315.444 290.653 314.06 294.422 313.06 297.037L312.829 296.883C313.368 292.192 313.675 285.192 313.675 281.347V257.811H306.06V311.651Z" fill="#DA3E0C"/>
<path d="M380.267 320.65H387.882V304.267H382.959V257.811H375.19V304.267H360.267V257.811H352.498V311.651H380.267V320.65Z" fill="#DA3E0C"/>
<path d="M398.561 311.651H406.407L419.407 282.193C420.714 279.193 422.253 275.04 423.253 272.271L423.484 272.424C423.099 276.886 422.791 284.116 422.791 288.192V311.651H430.407V257.811H422.484L409.407 287.5C407.945 290.653 406.561 294.422 405.561 297.037L405.33 296.883C405.869 292.192 406.176 285.192 406.176 281.347V257.811H398.561V311.651Z" fill="#DA3E0C"/>
<path d="M467.999 257.811V280.731H452.768V257.811H444.999V311.651H452.768V288.038H467.999V311.651H475.768V257.811H467.999Z" fill="#DA3E0C"/>
<path d="M512.924 311.651H521.001L507.463 257.811H499.078L485.54 311.651H493.694L496.155 300.806H510.386L512.924 311.651ZM497.847 293.576L501.155 279.116C502.001 275.578 502.77 270.425 503.155 267.579H503.386C503.77 270.425 504.616 275.578 505.386 279.116L508.77 293.576H497.847Z" fill="#DA3E0C"/>
<defs>
<linearGradient id="paint0_linear" x1="272.39" y1="148.823" x2="229.014" y2="72.7182" gradientUnits="userSpaceOnUse">
<stop stop-color="#CE2F03"/>
<stop offset="1" stop-color="#FF6A29"/>
</linearGradient>
<linearGradient id="paint1_linear" x1="233.739" y1="-14.0284" x2="255.788" y2="228.517" gradientUnits="userSpaceOnUse">
<stop stop-color="#ACBF05"/>
<stop offset="1" stop-color="#608D00"/>
</linearGradient>
</defs>
</svg>

<svg width="521" height="321" fill="none" xmlns="http://www.w3.org/2000/svg"><path fill-rule="evenodd" clip-rule="evenodd" d="M267.73 73.23h-16.415v22.884h-23.198v16.194h23.198v22.883h16.415v-22.883h23.198V96.114H267.73V73.23z" fill="url(#paint0_linear)"/><path fill-rule="evenodd" clip-rule="evenodd" d="M356.262 104.208c0 52.639-42.673 95.311-95.312 95.311-52.639 0-95.311-42.672-95.311-95.311 0-52.639 42.672-95.311 95.311-95.311 52.639 0 95.312 42.672 95.312 95.311zm8.897 0c0 57.553-46.656 104.208-104.209 104.208-57.552 0-104.208-46.655-104.208-104.208C156.742 46.656 203.398 0 260.95 0c57.553 0 104.209 46.656 104.209 104.208zm-164.643 66.945c-1.824-1.65-1.819-4.481-.08-6.22 1.735-1.735 4.541-1.726 6.37-.09 31.905 28.546 80.94 27.496 111.586-3.15 31.733-31.733 31.733-83.182 0-114.915C287.714 16.1 238.61 15.08 206.707 43.716c-1.828 1.642-4.638 1.653-6.376-.084-1.737-1.738-1.743-4.564.077-6.215 35.386-32.106 90.122-31.083 124.275 3.07 35.207 35.207 35.207 92.29 0 127.497-34.118 34.118-88.777 35.174-124.167 3.169zm-9.104-48.33c-2.373.636-3.793 3.083-3.022 5.416 12.605 38.144 52.96 60.267 92.258 49.737 40.741-10.916 64.918-52.793 54.002-93.533-10.917-40.74-52.793-64.918-93.534-54.002-1.775.476-3.297 2.881-2.376 5.646.922 2.765 3.09 3.374 4.679 2.948 35.995-9.645 72.992 11.716 82.637 47.71 9.645 35.995-11.716 72.993-47.71 82.637-34.551 9.258-70.026-10.052-81.346-43.45-.789-2.326-3.215-3.745-5.588-3.109zm64.499-80.316c2.468-.202 4.495 1.815 4.495 4.29 0 2.44-1.969 4.405-4.397 4.633-26.911 2.532-47.97 25.188-47.97 52.762 0 29.27 23.728 52.998 52.998 52.998 27.759 0 50.533-21.341 52.81-48.511.205-2.447 2.177-4.444 4.633-4.444 2.458 0 4.467 2.001 4.291 4.453-2.303 32.085-29.062 57.399-61.734 57.399-34.184 0-61.895-27.711-61.895-61.895 0-32.457 24.983-59.08 56.769-61.685z" fill="url(#paint1_linear)"/><path d="M26.667 257.811H.898v53.84h7.77v-46.456h18v-7.384zm18.298 46.533v-16.46h17.153v-7.153H44.965v-15.613H63.58v-7.307H37.196v53.84h27.153v-7.307H44.965zm45.763-46.533h-14.23v53.84h7.769V292.73h6.461c10.538 0 16.538-6.23 16.538-17.537 0-10.998-6-17.382-16.538-17.382zm-.077 27.535h-6.384v-20.151h6.384c5.846 0 8.692 3.384 8.692 9.998 0 6.923-2.846 10.153-8.692 10.153zm43.151 27.305c10.308 0 16.462-6.845 16.462-18.075v-19.69c0-11.23-6.154-18.075-16.462-18.075-10.307 0-16.461 6.845-16.461 18.075v19.69c0 11.23 6.154 18.075 16.461 18.075zm0-7.615c-5.615 0-8.461-3.692-8.461-10.46v-19.69c0-6.769 2.846-10.461 8.461-10.461 5.539 0 8.462 3.692 8.462 10.461v19.69c0 6.768-2.923 10.46-8.462 10.46zm63.793-47.225l-9.077 21.843c-1.231 3.077-3.077 8.23-3.923 10.692h-.308c-.846-2.462-2.692-7.615-3.923-10.692l-9.076-21.843h-7.923v53.84h7.615v-20.998c-.154-6.153-.385-11.768-.615-17.382l.307-.154c1.539 4.307 3.385 9.23 5.231 14.152l4.692 12.229h7.692l4.693-12.229c1.846-4.922 3.692-9.845 5.23-14.152l.308.154c-.308 5.614-.462 11.229-.615 17.382v20.998h7.615v-53.84h-7.923zm30.344 46.533v-16.46h17.153v-7.153h-17.153v-15.613h18.615v-7.307H220.17v53.84h27.153v-7.307h-19.384zm62.686 0v-46.533h-25.923l-.923 25.997c-.308 8.461-2.154 16.537-6.077 20.536h-3.153v16.306h7.615v-8.999h25.615v8.999h7.615v-16.306h-4.769zm-7.692 0H267.01c2.538-4.538 3.923-10.768 4.231-18.383l.769-20.843h10.923v39.226zm23.127 7.307h7.846l13-29.458c1.307-3 2.846-7.153 3.846-9.922l.231.153c-.385 4.462-.693 11.692-.693 15.768v23.459h7.616v-53.84h-7.923L316.906 287.5c-1.462 3.153-2.846 6.922-3.846 9.537l-.231-.154c.539-4.691.846-11.691.846-15.536v-23.536h-7.615v53.84zm74.207 8.999h7.615v-16.383h-4.923v-46.456h-7.769v46.456h-14.923v-46.456h-7.769v53.84h27.769v8.999zm18.294-8.999h7.846l13-29.458c1.307-3 2.846-7.153 3.846-9.922l.231.153c-.385 4.462-.693 11.692-.693 15.768v23.459h7.616v-53.84h-7.923L409.407 287.5c-1.462 3.153-2.846 6.922-3.846 9.537l-.231-.154c.539-4.691.846-11.691.846-15.536v-23.536h-7.615v53.84zm69.438-53.84v22.92h-15.231v-22.92h-7.769v53.84h7.769v-23.613h15.231v23.613h7.769v-53.84h-7.769zm44.925 53.84h8.077l-13.538-53.84h-8.385l-13.538 53.84h8.154l2.461-10.845h14.231l2.538 10.845zm-15.077-18.075l3.308-14.46c.846-3.538 1.615-8.691 2-11.537h.231c.384 2.846 1.23 7.999 2 11.537l3.384 14.46h-10.923z" fill="#DA3E0C"/><defs><linearGradient id="paint0_linear" x1="272.39" y1="148.823" x2="229.014" y2="72.718" gradientUnits="userSpaceOnUse"><stop stop-color="#CE2F03"/><stop offset="1" stop-color="#FF6A29"/></linearGradient><linearGradient id="paint1_linear" x1="233.739" y1="-14.028" x2="255.788" y2="228.517" gradientUnits="userSpaceOnUse"><stop stop-color="#ACBF05"/><stop offset="1" stop-color="#608D00"/></linearGradient></defs></svg>
